assets/images/font-names/open-sans.svg

<svg width="71.661" height="14.48"><path d="M41.236 10.591v-.747q1.157.491 2.951.491a4.664 4.664 0 00.842-.072q.742-.136 1.249-.533a2.007 2.007 0 00.566-.67q.201-.395.207-.884a2.472 2.472 0 000-.031 2.389 2.389 0 00-.036-.427q-.06-.331-.22-.58a1.755 1.755 0 00-.286-.336q-.147-.136-.338-.263a3.621 3.621 0 00-.211-.13q-.523-.298-1.488-.637a20.845 20.845 0 00-.212-.074 11.516 11.516 0 01-.821-.315q-.773-.334-1.22-.697a2.445 2.445 0 01-.225-.207 2.207 2.207 0 01-.565-1.107 3.184 3.184 0 01-.062-.64q0-1.199.938-1.956a3.263 3.263 0 01.004-.003 3.336 3.336 0 011.416-.658 4.783 4.783 0 011.004-.1 7.085 7.085 0 012.835.571l-.271.645a7.596 7.596 0 00-1.299-.417 5.829 5.829 0 00-1.25-.14 4.172 4.172 0 00-.759.065q-.439.081-.789.265a2.248 2.248 0 00-.342.219 1.761 1.761 0 00-.694 1.286 2.37 2.37 0 00-.009.209q0 .464.132.798a1.4 1.4 0 00.084.176 1.611 1.611 0 00.279.356q.14.136.322.26a3.002 3.002 0 00.106.068q.491.304 1.684.729 1.253.432 1.883.839.571.369.862.828a2.033 2.033 0 01.057.095 2.191 2.191 0 01.234.649q.054.27.055.58a3.691 3.691 0 010 .019 2.931 2.931 0 01-.162.998 2.505 2.505 0 01-.823 1.127 3.431 3.431 0 01-1.292.628q-.487.126-1.058.15a6.479 6.479 0 01-.268.005q-1.818 0-2.85-.37a3.667 3.667 0 01-.16-.062zm-5.955.286h-.718V5.713a4.52 4.52 0 00-.04-.624q-.1-.717-.452-1.109a1.358 1.358 0 00-.013-.014 1.558 1.558 0 00-.645-.409q-.392-.136-.923-.136a4.469 4.469 0 00-.771.062q-.412.072-.735.229a1.934 1.934 0 00-.585.43 2.133 2.133 0 00-.416.701q-.231.612-.246 1.517a7.657 7.657 0 000 .122v4.395h-.726V2.915h.616l.139 1.092h.044q.702-1.126 2.392-1.234a5.799 5.799 0 01.369-.012 3.613 3.613 0 011.105.155q1.176.378 1.49 1.679a4.586 4.586 0 01.115 1.074v5.208zm28.865 0h-.718V5.713a4.52 4.52 0 00-.04-.624q-.1-.717-.453-1.109a1.358 1.358 0 00-.012-.014 1.558 1.558 0 00-.645-.409q-.392-.136-.923-.136a4.469 4.469 0 00-.771.062q-.412.072-.735.229a1.934 1.934 0 00-.585.43 2.133 2.133 0 00-.417.701q-.23.612-.245 1.517a7.657 7.657 0 00-.001.122v4.395h-.725V2.915h.615l.14 1.092h.044q.702-1.126 2.392-1.234a5.799 5.799 0 01.369-.012 3.613 3.613 0 011.105.155q1.175.378 1.49 1.679a4.586 4.586 0 01.115 1.074v5.208zm1.86-.345v-.783a5.593 5.593 0 002.534.6 5.703 5.703 0 00.65-.034q.693-.08 1.119-.343a1.676 1.676 0 00.022-.014 1.514 1.514 0 00.342-.293 1.125 1.125 0 00.27-.751 1.253 1.253 0 00-.407-.939 1.68 1.68 0 00-.08-.072 2.721 2.721 0 00-.355-.248q-.395-.237-1.002-.468a11.474 11.474 0 00-.244-.09q-.918-.332-1.416-.593a3.399 3.399 0 01-.261-.15 2.826 2.826 0 01-.377-.288q-.214-.195-.352-.415a1.565 1.565 0 01-.205-.526 2.172 2.172 0 01-.04-.43 1.699 1.699 0 01.159-.744q.187-.389.592-.669.574-.398 1.498-.492a5.971 5.971 0 01.6-.029 6.283 6.283 0 012.446.484l-.271.659q-1.172-.483-2.175-.483-.667 0-1.146.151a2.1 2.1 0 00-.399.171 1.346 1.346 0 00-.3.224.918.918 0 00-.272.669 1.416 1.416 0 00.073.465 1.197 1.197 0 00.37.532 2.166 2.166 0 00.275.192q.491.296 1.458.643a16.607 16.607 0 01.559.212q.502.202.826.38a3.398 3.398 0 01.182.107 2.795 2.795 0 01.379.286q.204.184.339.393a1.726 1.726 0 01.018.028 1.625 1.625 0 01.226.64 2.1 2.1 0 01.019.29 2.235 2.235 0 01-.114.732 1.831 1.831 0 01-.699.912 2.772 2.772 0 01-.798.38q-.36.11-.792.158a6.516 6.516 0 01-.717.037 8.453 8.453 0 01-.977-.053q-.489-.057-.895-.175a3.601 3.601 0 01-.662-.263zm-53.43-.886h-.051l.022.615a19.406 19.406 0 01.022.568 25.103 25.103 0 01.007.619v3.032h-.725V2.915h.615l.139 1.136h.044a2.687 2.687 0 011.918-1.234 4.275 4.275 0 01.704-.056q1.612 0 2.457 1.059a3.443 3.443 0 01.575 1.099q.271.836.271 1.981a6.96 6.96 0 01-.094 1.186q-.196 1.129-.795 1.857-.89 1.08-2.428 1.08a3.849 3.849 0 01-1.076-.141 2.712 2.712 0 01-1.605-1.236zm42.722 1.231h-.535l-.183-1.26h-.058a5.176 5.176 0 01-.455.513q-.251.246-.509.417a2.622 2.622 0 01-.27.158q-.634.318-1.498.318a3.677 3.677 0 01-.729-.068q-.434-.087-.77-.289a1.996 1.996 0 01-.325-.243 1.971 1.971 0 01-.6-1.102 2.905 2.905 0 01-.052-.561 2.22 2.22 0 01.17-.883q.212-.495.689-.848a2.691 2.691 0 01.112-.078q.689-.458 1.817-.609a8.81 8.81 0 01.991-.072l1.517-.044v-.528a4.481 4.481 0 00-.041-.625q-.045-.319-.141-.578a1.814 1.814 0 00-.28-.51 1.429 1.429 0 00-.685-.464q-.243-.081-.54-.105a3.26 3.26 0 00-.262-.01q-1.106 0-2.292.615l-.271-.63a6.624 6.624 0 011.465-.497 5.524 5.524 0 011.128-.118q.883 0 1.466.31a1.915 1.915 0 01.493.371 2.075 2.075 0 01.44.734q.117.322.168.722a5.271 5.271 0 01.04.668v5.296zM26.814 6.409v.586h-5.735a5.819 5.819 0 00.081.949q.09.511.277.918a2.668 2.668 0 00.408.638 2.433 2.433 0 001.357.784 3.699 3.699 0 00.792.08q.681 0 1.198-.095a4.328 4.328 0 00.349-.081q.414-.113.958-.329v.659q-.62.27-1.154.381a4.21 4.21 0 01-.091.018 6.181 6.181 0 01-.68.086 7.981 7.981 0 01-.58.02 4.528 4.528 0 01-1.126-.132 3.132 3.132 0 01-1.58-.937q-.86-.947-.958-2.567a7.088 7.088 0 01-.012-.429 6.286 6.286 0 01.121-1.271q.162-.784.54-1.393a3.661 3.661 0 01.276-.386 3.039 3.039 0 012.229-1.136 4.162 4.162 0 01.298-.011 3.237 3.237 0 011.003.149 2.592 2.592 0 011.216.833 3.341 3.341 0 01.64 1.262q.173.627.173 1.404zm-17.392.725a8.267 8.267 0 00.151-1.626 9.732 9.732 0 00-.011-.461q-.042-.887-.249-1.634a4.969 4.969 0 00-1.007-1.937A4.047 4.047 0 006.312.199 5.463 5.463 0 004.798 0a6.022 6.022 0 00-.802.052 4.219 4.219 0 00-2.71 1.417 4.566 4.566 0 00-.474.648q-.461.763-.66 1.748A8.211 8.211 0 000 5.493a9.785 9.785 0 00.009.421Q.107 8.181 1.275 9.54a4.07 4.07 0 001.975 1.277 5.403 5.403 0 001.533.206 6.013 6.013 0 00.822-.054A4.174 4.174 0 008.299 9.54a4.649 4.649 0 00.469-.653q.457-.768.654-1.753zM.813 5.508a8.303 8.303 0 00.105 1.366q.224 1.336.921 2.19a3.328 3.328 0 002.067 1.182 4.985 4.985 0 00.877.074q1.933 0 2.955-1.245a4.071 4.071 0 00.716-1.349q.191-.593.263-1.311a9.148 9.148 0 00.043-.907q0-1.562-.466-2.632a3.81 3.81 0 00-.556-.917A3.311 3.311 0 005.754.812a4.992 4.992 0 00-.956-.087 4.685 4.685 0 00-1.236.154A3.304 3.304 0 001.85 1.97Q1.005 2.986.849 4.697a8.938 8.938 0 00-.036.811zM12.576 6.68v.234q0 1.868.626 2.666.538.686 1.655.783a4.449 4.449 0 00.385.016 2.628 2.628 0 00.839-.128 2.13 2.13 0 001.054-.781 3.097 3.097 0 00.464-.952q.206-.683.206-1.589 0-3.437-2.432-3.507a3.552 3.552 0 00-.102-.001 4.004 4.004 0 00-.761.067q-.431.084-.762.271a1.915 1.915 0 00-.52.427 2.262 2.262 0 00-.391.692q-.235.638-.259 1.588a8.694 8.694 0 00-.002.214zm8.547-.33h4.922a5.153 5.153 0 00-.065-.843q-.074-.448-.234-.81a2.477 2.477 0 00-.301-.511 1.934 1.934 0 00-1.405-.768 2.673 2.673 0 00-.258-.012 2.825 2.825 0 00-.844.12 2.245 2.245 0 00-1.002.638 2.764 2.764 0 00-.535.883q-.217.561-.278 1.303zM54.58 7.61v-.784l-1.391.059a10.947 10.947 0 00-.823.068q-.793.099-1.286.31a2.118 2.118 0 00-.283.146 1.441 1.441 0 00-.689 1.046 2.134 2.134 0 00-.025.334 1.962 1.962 0 00.054.475 1.337 1.337 0 00.404.686 1.501 1.501 0 00.588.322q.228.067.501.086a3.096 3.096 0 00.204.006q1.274 0 2.01-.729a2.397 2.397 0 00.641-1.166q.095-.393.095-.859z" vector-effect="non-scaling-stroke" stroke-linecap="round" fill-rule="evenodd" font-size="12" stroke="#000" stroke-width=".25mm" fill="none"/></svg>

<svg width="71.661" height="14.48" viewBox="0 0 71.661 14.48"><title>Open Sans</title><g id="svgGroup" stroke-linecap="round" fill-rule="evenodd" font-size="9pt" stroke="#000" stroke-width="0.25mm" fill="none" style="stroke:#000;stroke-width:0.25mm;fill:none"><path d="M 41.236 10.591 L 41.236 9.844 Q 42.393 10.335 44.187 10.335 A 4.664 4.664 0 0 0 45.029 10.263 Q 45.771 10.127 46.278 9.73 A 2.007 2.007 0 0 0 46.844 9.06 Q 47.045 8.665 47.051 8.176 A 2.472 2.472 0 0 0 47.051 8.145 A 2.389 2.389 0 0 0 47.015 7.718 Q 46.955 7.387 46.795 7.138 A 1.755 1.755 0 0 0 46.509 6.802 Q 46.362 6.666 46.171 6.539 A 3.621 3.621 0 0 0 45.96 6.409 Q 45.437 6.111 44.472 5.772 A 20.845 20.845 0 0 0 44.26 5.698 A 11.516 11.516 0 0 1 43.439 5.383 Q 42.666 5.049 42.219 4.686 A 2.445 2.445 0 0 1 41.994 4.479 A 2.207 2.207 0 0 1 41.429 3.372 A 3.184 3.184 0 0 1 41.367 2.732 Q 41.367 1.533 42.305 0.776 A 3.263 3.263 0 0 1 42.309 0.773 A 3.336 3.336 0 0 1 43.725 0.115 A 4.783 4.783 0 0 1 44.729 0.015 A 7.085 7.085 0 0 1 47.564 0.586 L 47.293 1.231 A 7.596 7.596 0 0 0 45.994 0.814 A 5.829 5.829 0 0 0 44.744 0.674 A 4.172 4.172 0 0 0 43.985 0.739 Q 43.546 0.82 43.196 1.004 A 2.248 2.248 0 0 0 42.854 1.223 A 1.761 1.761 0 0 0 42.16 2.509 A 2.37 2.37 0 0 0 42.151 2.718 Q 42.151 3.182 42.283 3.516 A 1.4 1.4 0 0 0 42.367 3.692 A 1.611 1.611 0 0 0 42.646 4.048 Q 42.786 4.184 42.968 4.308 A 3.002 3.002 0 0 0 43.074 4.376 Q 43.565 4.68 44.758 5.105 Q 46.011 5.537 46.641 5.944 Q 47.212 6.313 47.503 6.772 A 2.033 2.033 0 0 1 47.56 6.867 A 2.191 2.191 0 0 1 47.794 7.516 Q 47.848 7.786 47.849 8.096 A 3.691 3.691 0 0 1 47.849 8.115 A 2.931 2.931 0 0 1 47.687 9.113 A 2.505 2.505 0 0 1 46.864 10.24 A 3.431 3.431 0 0 1 45.572 10.868 Q 45.085 10.994 44.514 11.018 A 6.479 6.479 0 0 1 44.246 11.023 Q 42.428 11.023 41.396 10.653 A 3.667 3.667 0 0 1 41.236 10.591 Z M 35.281 10.877 L 34.563 10.877 L 34.563 5.713 A 4.52 4.52 0 0 0 34.523 5.089 Q 34.423 4.372 34.071 3.98 A 1.358 1.358 0 0 0 34.058 3.966 A 1.558 1.558 0 0 0 33.413 3.557 Q 33.021 3.421 32.49 3.421 A 4.469 4.469 0 0 0 31.719 3.483 Q 31.307 3.555 30.984 3.712 A 1.934 1.934 0 0 0 30.399 4.142 A 2.133 2.133 0 0 0 29.983 4.843 Q 29.752 5.455 29.737 6.36 A 7.657 7.657 0 0 0 29.737 6.482 L 29.737 10.877 L 29.011 10.877 L 29.011 2.915 L 29.627 2.915 L 29.766 4.007 L 29.81 4.007 Q 30.512 2.881 32.202 2.773 A 5.799 5.799 0 0 1 32.571 2.761 A 3.613 3.613 0 0 1 33.676 2.916 Q 34.852 3.294 35.166 4.595 A 4.586 4.586 0 0 1 35.281 5.669 L 35.281 10.877 Z M 64.146 10.877 L 63.428 10.877 L 63.428 5.713 A 4.52 4.52 0 0 0 63.388 5.089 Q 63.288 4.372 62.935 3.98 A 1.358 1.358 0 0 0 62.923 3.966 A 1.558 1.558 0 0 0 62.278 3.557 Q 61.886 3.421 61.355 3.421 A 4.469 4.469 0 0 0 60.584 3.483 Q 60.172 3.555 59.849 3.712 A 1.934 1.934 0 0 0 59.264 4.142 A 2.133 2.133 0 0 0 58.847 4.843 Q 58.617 5.455 58.602 6.36 A 7.657 7.657 0 0 0 58.601 6.482 L 58.601 10.877 L 57.876 10.877 L 57.876 2.915 L 58.491 2.915 L 58.631 4.007 L 58.675 4.007 Q 59.377 2.881 61.067 2.773 A 5.799 5.799 0 0 1 61.436 2.761 A 3.613 3.613 0 0 1 62.541 2.916 Q 63.716 3.294 64.031 4.595 A 4.586 4.586 0 0 1 64.146 5.669 L 64.146 10.877 Z M 66.006 10.532 L 66.006 9.749 A 5.593 5.593 0 0 0 68.54 10.349 A 5.703 5.703 0 0 0 69.19 10.315 Q 69.883 10.235 70.309 9.972 A 1.676 1.676 0 0 0 70.331 9.958 A 1.514 1.514 0 0 0 70.673 9.665 A 1.125 1.125 0 0 0 70.943 8.914 A 1.253 1.253 0 0 0 70.536 7.975 A 1.68 1.68 0 0 0 70.456 7.903 A 2.721 2.721 0 0 0 70.101 7.655 Q 69.706 7.418 69.099 7.187 A 11.474 11.474 0 0 0 68.855 7.097 Q 67.937 6.765 67.439 6.504 A 3.399 3.399 0 0 1 67.178 6.354 A 2.826 2.826 0 0 1 66.801 6.066 Q 66.587 5.871 66.449 5.651 A 1.565 1.565 0 0 1 66.244 5.125 A 2.172 2.172 0 0 1 66.204 4.695 A 1.699 1.699 0 0 1 66.363 3.951 Q 66.55 3.562 66.955 3.282 Q 67.529 2.884 68.453 2.79 A 5.971 5.971 0 0 1 69.053 2.761 A 6.283 6.283 0 0 1 71.499 3.245 L 71.228 3.904 Q 70.056 3.421 69.053 3.421 Q 68.386 3.421 67.907 3.572 A 2.1 2.1 0 0 0 67.508 3.743 A 1.346 1.346 0 0 0 67.208 3.967 A 0.918 0.918 0 0 0 66.936 4.636 A 1.416 1.416 0 0 0 67.009 5.101 A 1.197 1.197 0 0 0 67.379 5.633 A 2.166 2.166 0 0 0 67.654 5.825 Q 68.145 6.121 69.112 6.468 A 16.607 16.607 0 0 1 69.671 6.68 Q 70.173 6.882 70.497 7.06 A 3.398 3.398 0 0 1 70.679 7.167 A 2.795 2.795 0 0 1 71.058 7.453 Q 71.262 7.637 71.397 7.846 A 1.726 1.726 0 0 1 71.415 7.874 A 1.625 1.625 0 0 1 71.641 8.514 A 2.1 2.1 0 0 1 71.66 8.804 A 2.235 2.235 0 0 1 71.546 9.536 A 1.831 1.831 0 0 1 70.847 10.448 A 2.772 2.772 0 0 1 70.049 10.828 Q 69.689 10.938 69.257 10.986 A 6.516 6.516 0 0 1 68.54 11.023 A 8.453 8.453 0 0 1 67.563 10.97 Q 67.074 10.913 66.668 10.795 A 3.601 3.601 0 0 1 66.006 10.532 Z M 12.576 9.646 L 12.525 9.646 L 12.547 10.261 A 19.406 19.406 0 0 1 12.569 10.829 A 25.103 25.103 0 0 1 12.576 11.448 L 12.576 14.48 L 11.851 14.48 L 11.851 2.915 L 12.466 2.915 L 12.605 4.051 L 12.649 4.051 A 2.687 2.687 0 0 1 14.567 2.817 A 4.275 4.275 0 0 1 15.271 2.761 Q 16.883 2.761 17.728 3.82 A 3.443 3.443 0 0 1 18.303 4.919 Q 18.574 5.755 18.574 6.9 A 6.96 6.96 0 0 1 18.48 8.086 Q 18.284 9.215 17.685 9.943 Q 16.795 11.023 15.257 11.023 A 3.849 3.849 0 0 1 14.181 10.882 A 2.712 2.712 0 0 1 12.576 9.646 Z M 55.298 10.877 L 54.763 10.877 L 54.58 9.617 L 54.522 9.617 A 5.176 5.176 0 0 1 54.067 10.13 Q 53.816 10.376 53.558 10.547 A 2.622 2.622 0 0 1 53.288 10.705 Q 52.654 11.023 51.79 11.023 A 3.677 3.677 0 0 1 51.061 10.955 Q 50.627 10.868 50.291 10.666 A 1.996 1.996 0 0 1 49.966 10.423 A 1.971 1.971 0 0 1 49.366 9.321 A 2.905 2.905 0 0 1 49.314 8.76 A 2.22 2.22 0 0 1 49.484 7.877 Q 49.696 7.382 50.173 7.029 A 2.691 2.691 0 0 1 50.285 6.951 Q 50.974 6.493 52.102 6.342 A 8.81 8.81 0 0 1 53.093 6.27 L 54.61 6.226 L 54.61 5.698 A 4.481 4.481 0 0 0 54.569 5.073 Q 54.524 4.754 54.428 4.495 A 1.814 1.814 0 0 0 54.148 3.985 A 1.429 1.429 0 0 0 53.463 3.521 Q 53.22 3.44 52.923 3.416 A 3.26 3.26 0 0 0 52.661 3.406 Q 51.555 3.406 50.369 4.021 L 50.098 3.391 A 6.624 6.624 0 0 1 51.563 2.894 A 5.524 5.524 0 0 1 52.691 2.776 Q 53.574 2.776 54.157 3.086 A 1.915 1.915 0 0 1 54.65 3.457 A 2.075 2.075 0 0 1 55.09 4.191 Q 55.207 4.513 55.258 4.913 A 5.271 5.271 0 0 1 55.298 5.581 L 55.298 10.877 Z M 26.814 6.409 L 26.814 6.995 L 21.079 6.995 A 5.819 5.819 0 0 0 21.16 7.944 Q 21.25 8.455 21.437 8.862 A 2.668 2.668 0 0 0 21.845 9.5 A 2.433 2.433 0 0 0 23.202 10.284 A 3.699 3.699 0 0 0 23.994 10.364 Q 24.675 10.364 25.192 10.269 A 4.328 4.328 0 0 0 25.541 10.188 Q 25.955 10.075 26.499 9.859 L 26.499 10.518 Q 25.879 10.788 25.345 10.899 A 4.21 4.21 0 0 1 25.254 10.917 A 6.181 6.181 0 0 1 24.574 11.003 A 7.981 7.981 0 0 1 23.994 11.023 A 4.528 4.528 0 0 1 22.868 10.891 A 3.132 3.132 0 0 1 21.288 9.954 Q 20.428 9.007 20.33 7.387 A 7.088 7.088 0 0 1 20.318 6.958 A 6.286 6.286 0 0 1 20.439 5.687 Q 20.601 4.903 20.979 4.294 A 3.661 3.661 0 0 1 21.255 3.908 A 3.039 3.039 0 0 1 23.484 2.772 A 4.162 4.162 0 0 1 23.782 2.761 A 3.237 3.237 0 0 1 24.785 2.91 A 2.592 2.592 0 0 1 26.001 3.743 A 3.341 3.341 0 0 1 26.641 5.005 Q 26.814 5.632 26.814 6.409 Z M 9.422 7.134 A 8.267 8.267 0 0 0 9.573 5.508 A 9.732 9.732 0 0 0 9.562 5.047 Q 9.52 4.16 9.313 3.413 A 4.969 4.969 0 0 0 8.306 1.476 A 4.047 4.047 0 0 0 6.312 0.199 A 5.463 5.463 0 0 0 4.798 0 A 6.022 6.022 0 0 0 3.996 0.052 A 4.219 4.219 0 0 0 1.286 1.469 A 4.566 4.566 0 0 0 0.812 2.117 Q 0.351 2.88 0.152 3.865 A 8.211 8.211 0 0 0 0 5.493 A 9.785 9.785 0 0 0 0.009 5.914 Q 0.107 8.181 1.275 9.54 A 4.07 4.07 0 0 0 3.25 10.817 A 5.403 5.403 0 0 0 4.783 11.023 A 6.013 6.013 0 0 0 5.605 10.969 A 4.174 4.174 0 0 0 8.299 9.54 A 4.649 4.649 0 0 0 8.768 8.887 Q 9.225 8.119 9.422 7.134 Z M 0.813 5.508 A 8.303 8.303 0 0 0 0.918 6.874 Q 1.142 8.21 1.839 9.064 A 3.328 3.328 0 0 0 3.906 10.246 A 4.985 4.985 0 0 0 4.783 10.32 Q 6.716 10.32 7.738 9.075 A 4.071 4.071 0 0 0 8.454 7.726 Q 8.645 7.133 8.717 6.415 A 9.148 9.148 0 0 0 8.76 5.508 Q 8.76 3.946 8.294 2.876 A 3.81 3.81 0 0 0 7.738 1.959 A 3.311 3.311 0 0 0 5.754 0.812 A 4.992 4.992 0 0 0 4.798 0.725 A 4.685 4.685 0 0 0 3.562 0.879 A 3.304 3.304 0 0 0 1.85 1.97 Q 1.005 2.986 0.849 4.697 A 8.938 8.938 0 0 0 0.813 5.508 Z M 12.576 6.68 L 12.576 6.914 Q 12.576 8.782 13.202 9.58 Q 13.74 10.266 14.857 10.363 A 4.449 4.449 0 0 0 15.242 10.379 A 2.628 2.628 0 0 0 16.081 10.251 A 2.13 2.13 0 0 0 17.135 9.47 A 3.097 3.097 0 0 0 17.599 8.518 Q 17.805 7.835 17.805 6.929 Q 17.805 3.492 15.373 3.422 A 3.552 3.552 0 0 0 15.271 3.421 A 4.004 4.004 0 0 0 14.51 3.488 Q 14.079 3.572 13.748 3.759 A 1.915 1.915 0 0 0 13.228 4.186 A 2.262 2.262 0 0 0 12.837 4.878 Q 12.602 5.516 12.578 6.466 A 8.694 8.694 0 0 0 12.576 6.68 Z M 21.123 6.35 L 26.045 6.35 A 5.153 5.153 0 0 0 25.98 5.507 Q 25.906 5.059 25.746 4.697 A 2.477 2.477 0 0 0 25.445 4.186 A 1.934 1.934 0 0 0 24.04 3.418 A 2.673 2.673 0 0 0 23.782 3.406 A 2.825 2.825 0 0 0 22.938 3.526 A 2.245 2.245 0 0 0 21.936 4.164 A 2.764 2.764 0 0 0 21.401 5.047 Q 21.184 5.608 21.123 6.35 Z M 54.58 7.61 L 54.58 6.826 L 53.189 6.885 A 10.947 10.947 0 0 0 52.366 6.953 Q 51.573 7.052 51.08 7.263 A 2.118 2.118 0 0 0 50.797 7.409 A 1.441 1.441 0 0 0 50.108 8.455 A 2.134 2.134 0 0 0 50.083 8.789 A 1.962 1.962 0 0 0 50.137 9.264 A 1.337 1.337 0 0 0 50.541 9.95 A 1.501 1.501 0 0 0 51.129 10.272 Q 51.357 10.339 51.63 10.358 A 3.096 3.096 0 0 0 51.834 10.364 Q 53.108 10.364 53.844 9.635 A 2.397 2.397 0 0 0 54.485 8.469 Q 54.58 8.076 54.58 7.61 Z" vector-effect="non-scaling-stroke"/></g></svg>
